X:367
T:Reel 367
M:4/4
K:Amaj
L:1/8
ED| (3CDC A,C  (3B,CB, G,B,|A,G,E,G, A,G,E,G,|A,B,CD EFGE| (3AGA ED CDB,D| (3CDC EC B,CB,C| (3E,E,G, E,F, G,B,G,B,| (3CB,A, B,G, A,G,E,D,|E,A,A,B, A,2|CB,|A,AAG A2AB|cABc AEED|CB,CE A2GE| (3FGA EC DB,G,B,| (3CB,A, EC DB,EC|A,B,CE A2GE| (3FGA ED CEEA|GEDB, A,2|
